!!!COM: Augusta Holme\s
!!!CNT: Francais
!!!TXO: Francais
!!!OTL: "Le Vin"
!!!LYR:
!!!OPR: Les Sept Ivresses
!!!OPS: Op.
!!!ONM: No. 2
!!!ENC: Alyona Dzerbina
!!!YOR: Augusta Holme\s, Le Vin
!!!YOR: Da Capo Press, New York, 1984
!!!ODT: 1882/
!!NB: Vocal melody and text encoded.
**kern	**text
*staff1	*staff1
=1-	=1-
*clefG2	*
*k[]	*
*M2/2	*
1r	.
=2	=2
1r	.
=3	=3
1r	.
=4	=4
1r	.
=5	=5
1r	.
=6	=6
1r	.
=7	=7
1r	.
=8	=8
1r	.
=9	=9
1r	.
=10	=10
1r	.
=11	=11
1r	.
=12	=12
1r	.
=13	=13
1r	.
=14	=14
1r	.
=15	=15
1r	.
=16	=16
1r	.
=17	=17
{4ee	{Vins
4ee	d'Es-
4e	-pague
4e	et
=18	=18
4cc	vins
8b	de
8a	Hon-
4b	gri
4e}	-e,}
=19	=19
{4cc	{Vins
8b	d'A-
8cc	-li-
4dd	-cante
4dd	et
=20	=20
4ee	de
4ee	Schi-
2b}	-raz,}
=21	=21
{4a	{Tout
4ff#	au
4ee	ras,
8b	Em-
8g#	-plis-
=22	=22
4a	-sez
4ff#	ma
4ee	cou-
8b	-pe
8cc#	fleu-
=23	=23
1dd#	ri
=24	=24
[2g#	-e!
4g#]}	|}
4r	.
=25	=25
1r	.
=26	=26
1r	.
=27	=27
1r	.
=28	=28
*k[b-e-a-d-g-]	*
{4.a-	{E-
8b-	-clai-
4.a-	-rez
8b-	mes
=29	=29
4.a-	yeux
8b-	|
4.a-	obs-
8b-	-cur-
=30	=30
4.a-}	-cis,}
{8b-	{Ca-
6a-	-chez
6b-	a\
6cc	mon
=31	=31
6ee-	a^-
6dd-	-me
6cc	ra-
6dd-	-vi-
6a-	|
6f}	-e}
=32	=32
{4.cc	{Les
8dd-	sou-
[2cc	-cis
=33	=33
4cc]	|
2ff	Et
4ee-	les
=34	=34
4dd-	noirs
4b-	cha-
6g-	-grins
6a-	de
6b-	la
=35	=35
(2e-	vi-
4a-)}	-e!}
4r	.
=36	=36
*k[f#c#g#d#]	*
{4.b	{Ro-
8cc#	-ses
4.b	vier-
8cc#	|
=37	=37
4b	-ges,
[4ee	blonds
6ee]	|
6dd#	e/-
6ff#	-chan-
=38	=38
6ee	-sons,
6dd#	O
6cc#	beau-
6b	-te/!
6a	me^-
6f#	-le
=39	=39
4g#	ton
4cc#	doux
4b	ri-
4g#	-re,
=40	=40
4.ddn	Tes
8ff#	chan-
[2ee	-sons,
=41	=41
2ee_	|
4ee]}	|}
4r	.
=42	=42
{4.gg#	{Aux
8aa	ex-
[2gg#	-ta
=43	=43
4gg#]	|
4ee	|
4cc#	ses
4a	de
=44	=44
(6g#	mon
6f#)	|
6e	de/-
[2b	-li-
=45	=45
(1b]	|
=46	=46
[2ee)	-re!
4ee]}	|}
4r	.
=47	=47
1r	.
=48	=48
*k[f#c#g#]	*
{4e	{Cou-
[4fn	|
6f]	|
6f#	ron-
6g#	-nez-
=49	=49
4g#	-moi
[4a	|
6a]	|
(6a#	de
6b)	|
=50	=50
(4b#	lier-
2cc#)	-re
4a	en
=51	=51
[2e	fleurs!
8e]}	|}
8r	.
{4e	{Ver-
=52	=52
[1ee	-sez!
=53	=53
4ee]	|
4r	.
6b	que
6cc#	la
6dd	bru-
=54	=54
[2ff#	-meuse
6ff#]	|
6ee	|
6dd#	au-
=55	=55
4ff#	-ro-
[4ee	-re
6ee]	|
6cc#	Toute
6a	en
=56	=56
[1g#	pleurs!
=57	=57
4g#]}	|}
4r	.
{4.g#	{Me
8g#	re-
=58	=58
[1gg#	-trou-
=59	=59
2gg#]	|
4.cc#	-ve
8cc#	bu-
=60	=60
(2gg#	-vant
[2ff#)	|
=61	=61
4ff#]	|
4r	.
6cc#	Bu-
6a	-vant
6f#	en-
=62	=62
1cc#	-co-
=63	=63
1b	|
=64	=64
[2a	-re!
4a]}	|}
4r	.
=65	=65
1r	.
=66	=66
1r	.
=67	=67
1r	.
=68	=68
1r	.
=69	=69
4r	.
4r	.
4r	.
8r	.
{8a	{A-
=70	=70
*k[]	*
[1dd	-vec
=71	=71
2dd]	|
2dd	un
=72	=72
1dd	bruit
=73	=73
2dd	de
4.dd	gran-
8dd	-des
=74	=74
[1ee-	eaux
=75	=75
1ee-_	|
=76	=76
1ee-_	|
=77	=77
4ee-]}	|}
4r	.
{2ee-	{Le
=78	=78
1ee	vin
=79	=79
2.ee	a\
4ee	longs
=80	=80
1ee	fleu-
=81	=81
2.ee	-ves
4ee	ruis-
=82	=82
[1ff	-sel-
=83	=83
1ff]	|
=84	=84
[2ff	-le!
4ff]}	|}
4r	.
=85	=85
4r	.
4r	.
4r	.
8r	.
{8ff	{I-
=86	=86
4ff	-ac-
8ff}	-chos!}
8r	.
4r	.
4r	.
=87	=87
4r	.
4r	.
4r	.
8r	.
{8ff#	{I-
=88	=88
4ff#	-ac-
8ff#}	-chos!}
8r	.
2r	.
=89	=89
4r	.
4r	.
4r	.
8r	.
{8gg	{I-
=90	=90
4gg	-ac-
8gg}	-chos!}
8r	.
4r	.
8r	.
{8gg#	{I-
=91	=91
4gg#	-ac-
8gg#}	-chos!}
8r	.
4r	.
8r	.
{8gg#	{Por-
=92	=92
4.aa	-teur
8ee	du
[2cc	Thyr-
=93	=93
4cc]	|
8b	-se,
8r	.
4.a	Je
8ff	t'ap-
=94	=94
[1ee	-pel-
=95	=95
1ee]	|
=96	=96
4ee}	-le!}
4r	.
2r	.
=97	=97
4r	.
4r	.
4r	.
{4ee	{Prends-
=98	=98
*k[f#c#g#]	*
[1ee	-moi!
=99	=99
4ee]	|
4ee	pos-
4ee	-se\-
4ee	-de-
=100	=100
(4ff#	-moi,
2ee)	|
4cc#	Dieu
=101	=101
[2ee	fort!
4ee]}	|}
4r	.
=102	=102
4r	.
{[4dd	{A-
6dd]	|
6cc#	|
6b	-ne/-
=103	=103
(6a#	-an-
6cc#	-tis
[6b	moi!
2b])}	|}
=104	=104
4r	.
{([4ff#	{Je
6ff#]	|
6ee	|
6dd#	me
=105	=105
4ff#	li-
[4ee	-vre!
4ee])}	|}
4r	.
=106	=106
4r	.
{8a	{Je-
8a	-suis
[2ee	i-
=107	=107
1ee_	|
=108	=108
2.ee]	|
4dd	|
=109	=109
4a}	-vre!}
4r	.
2r	.
=110	=110
4r	.
{8cc#	{Je-
8cc#	-suis
[2gg#	i-
=111	=111
1gg#_	|
=112	=112
2.gg#]	|
4ff#	|
=113	=113
4cc#}	-vre!}
4r	.
{4cc#	{Je-
4ff#	-suis
=114	=114
(4aa	i-
2gg#	|
[4ff#	|
=115	=115
4ff#]	|
4ee)	-vre!
6r	.
(6cc#	Je-
6a)	-suis
=116	=116
1ee-	i-
=117	=117
4a}	-vre!}
4r	.
{4g#	{Et
4a	veux
=118	=118
[1ee	boi-
=119	=119
1ee_	|
=120	=120
1ee]	|
=121	=121
[2ee	-re
4ee]	|
4r	.
=122	=122
[1ee	jus-
=123	=123
1ee]	|
=124	=124
[1ee	-qua
=125	=125
2..ee]	|
8ee	la
=126	=126
*k[]	*
[2aa	mort!
4aa]}	|}
4r	.
=127	=127
1r	.
=128	=128
1r	.
=129	=129
1r	.
=130	=130
1r	.
=131	=131
1r	.
=132	=132
1r	.
=133	=133
1r	.
=134	=134
1r	.
=135	=135
1r	.
=136	=136
1r	.
=137	=137
1r	.
=138	=138
1r	.
==	==
*-	*-
